X: 1
T: Reunion Jig
O: jig version of Judy's Reel
C: John Chambers
N: Modified from Bruce Randall's version
M: 6/8
R: jig
K: D
G |\
"D"FAB AFD | FAB "A"cde | "Bm"fBA Bde | fdf "A7"ecA |\
"D"FAB AFD | FAB "A"cde | "Bm"fBA "G"BdB | "A"AFE "D"D2 :|
|: e |\
"D"fab afd | fdb afd | "Em"ega bge | geb "A7"geg |\
"D"faf baf | def "A"ede | "Bm"fBA "G"BdB | "A"AFE "D"D2 :|
